X: 55
T: No_154_(war_songs).krn
N: Derived from No_154_(war_songs).krn
%%abc-version 2.0
%%abcx-abcm2ps-target-version 5.9.1 (29 Sep 2008)
%%abc-creator hum2abc beta
%%abcx-conversion-date 2019/03/15 08:29:13
%%humdrum-veritas 1237177026
%%humdrum-veritas-data 714940733
%%linebreak <none>
%%barnumbers 0
L: 1/8
M: 2/4
K: Bb clef=treble
[K:clef=treble][M:2/4]BB BB | 
B2cB | 
GGG2 | 
G4 ||  
[M:3/4]G4E2 ||  
[M:2/4]GG GG | 
G2B2 | 
GGG2 | 
G4 | 
E2(3DDE | 
D2(3:2:4EDB,/G,/ | 
G,3/G,/G,2 | 
G,3(3B,/G,/=B,/ | 
A,2B,A, | 
G,G,3//G,//G,2 | 
G,4 |]  



